images/3234831.svg

<?xml version="1.0" encoding="UTF-8"?>
<svg xmlns="http://www.w3.org/2000/svg" xmlns:xlink="http://www.w3.org/1999/xlink" width="300pt" height="300pt" viewBox="0 0 300 300" version="1.1">
<defs>
<g>
<symbol overflow="visible" id="glyph0-0">
<path style="stroke:none;" d="M 0.453125 1.59375 L 0.453125 -6.34375 L 4.953125 -6.34375 L 4.953125 1.59375 Z M 0.953125 1.09375 L 4.453125 1.09375 L 4.453125 -5.84375 L 0.953125 -5.84375 Z M 0.953125 1.09375 "/>
</symbol>
<symbol overflow="visible" id="glyph0-1">
<path style="stroke:none;" d="M 0.890625 -6.5625 L 2.078125 -6.5625 L 4.984375 -1.078125 L 4.984375 -6.5625 L 5.84375 -6.5625 L 5.84375 0 L 4.65625 0 L 1.75 -5.484375 L 1.75 0 L 0.890625 0 Z M 0.890625 -6.5625 "/>
</symbol>
<symbol overflow="visible" id="glyph0-2">
<path style="stroke:none;" d="M 3.546875 -5.953125 C 2.898438 -5.953125 2.382812 -5.710938 2 -5.234375 C 1.625 -4.753906 1.4375 -4.101562 1.4375 -3.28125 C 1.4375 -2.445312 1.625 -1.789062 2 -1.3125 C 2.382812 -0.832031 2.898438 -0.59375 3.546875 -0.59375 C 4.191406 -0.59375 4.703125 -0.832031 5.078125 -1.3125 C 5.453125 -1.789062 5.640625 -2.445312 5.640625 -3.28125 C 5.640625 -4.101562 5.453125 -4.753906 5.078125 -5.234375 C 4.703125 -5.710938 4.191406 -5.953125 3.546875 -5.953125 Z M 3.546875 -6.6875 C 4.460938 -6.6875 5.195312 -6.375 5.75 -5.75 C 6.300781 -5.132812 6.578125 -4.3125 6.578125 -3.28125 C 6.578125 -2.238281 6.300781 -1.410156 5.75 -0.796875 C 5.195312 -0.179688 4.460938 0.125 3.546875 0.125 C 2.617188 0.125 1.878906 -0.179688 1.328125 -0.796875 C 0.773438 -1.410156 0.5 -2.238281 0.5 -3.28125 C 0.5 -4.3125 0.773438 -5.132812 1.328125 -5.75 C 1.878906 -6.375 2.617188 -6.6875 3.546875 -6.6875 Z M 3.546875 -6.6875 "/>
</symbol>
<symbol overflow="visible" id="glyph0-3">
<path style="stroke:none;" d="M 0.890625 -6.5625 L 4.65625 -6.5625 L 4.65625 -5.8125 L 1.765625 -5.8125 L 1.765625 -3.875 L 4.375 -3.875 L 4.375 -3.140625 L 1.765625 -3.140625 L 1.765625 0 L 0.890625 0 Z M 0.890625 -6.5625 "/>
</symbol>
</g>
</defs>
<g id="surface49501">
<rect x="0" y="0" width="300" height="300" style="fill:rgb(100%,100%,100%);fill-opacity:1;stroke:none;"/>
<path style="fill:none;stroke-width:1.2;stroke-linecap:butt;stroke-linejoin:miter;stroke:rgb(0%,0%,0%);stroke-opacity:1;stroke-miterlimit:10;" d="M 175.453125 195.40625 L 150.167969 195.097656 "/>
<path style="fill:none;stroke-width:1.2;stroke-linecap:butt;stroke-linejoin:miter;stroke:rgb(0%,0%,0%);stroke-opacity:1;stroke-miterlimit:10;" d="M 188.359375 173.660156 L 175.453125 195.40625 "/>
<path style="fill:none;stroke-width:1;stroke-linecap:butt;stroke-linejoin:miter;stroke:rgb(0%,0%,0%);stroke-opacity:1;stroke-miterlimit:10;" d="M 137.789062 173.046875 L 137.789062 173.046875 M 138.78125 175.878906 L 139.6875 175.367188 M 139.769531 178.710938 L 141.589844 177.6875 M 140.761719 181.542969 L 143.488281 180.011719 M 141.753906 184.371094 L 145.390625 182.332031 M 142.746094 187.203125 L 147.292969 184.652344 M 143.738281 190.035156 L 149.191406 186.972656 M 144.726562 192.867188 L 151.09375 189.292969 M 145.71875 195.699219 L 152.992188 191.613281 M 146.273438 197.28125 L 154.058594 192.914062 "/>
<path style="fill:none;stroke-width:1.2;stroke-linecap:butt;stroke-linejoin:miter;stroke:rgb(0%,0%,0%);stroke-opacity:1;stroke-miterlimit:10;" d="M 137.789062 173.046875 L 122.675781 193.324219 "/>
<path style="fill:none;stroke-width:1.2;stroke-linecap:butt;stroke-linejoin:miter;stroke:rgb(0%,0%,0%);stroke-opacity:1;stroke-miterlimit:10;" d="M 137.789062 173.046875 L 150.695312 151.300781 "/>
<path style="fill:none;stroke-width:1.2;stroke-linecap:butt;stroke-linejoin:miter;stroke:rgb(0%,0%,0%);stroke-opacity:1;stroke-miterlimit:10;" d="M 123.171875 152.410156 L 137.789062 173.046875 "/>
<path style="fill:none;stroke-width:1.2;stroke-linecap:butt;stroke-linejoin:miter;stroke:rgb(0%,0%,0%);stroke-opacity:1;stroke-miterlimit:10;" d="M 122.675781 193.324219 L 98.722656 185.21875 "/>
<path style="fill:none;stroke-width:1.2;stroke-linecap:butt;stroke-linejoin:miter;stroke:rgb(0%,0%,0%);stroke-opacity:1;stroke-miterlimit:10;" d="M 98.722656 185.21875 L 98.875 172.574219 "/>
<path style="fill:none;stroke-width:1.2;stroke-linecap:butt;stroke-linejoin:miter;stroke:rgb(0%,0%,100%);stroke-opacity:1;stroke-miterlimit:10;" d="M 98.875 172.574219 L 99.027344 159.933594 "/>
<path style="fill:none;stroke-width:1.2;stroke-linecap:butt;stroke-linejoin:miter;stroke:rgb(0%,0%,100%);stroke-opacity:1;stroke-miterlimit:10;" d="M 99.027344 159.933594 L 111.101562 156.171875 "/>
<path style="fill:none;stroke-width:1.2;stroke-linecap:butt;stroke-linejoin:miter;stroke:rgb(0%,0%,0%);stroke-opacity:1;stroke-miterlimit:10;" d="M 111.101562 156.171875 L 123.171875 152.410156 "/>
<path style="fill:none;stroke-width:1.2;stroke-linecap:butt;stroke-linejoin:miter;stroke:rgb(0%,0%,100%);stroke-opacity:1;stroke-miterlimit:10;" d="M 99.027344 159.933594 L 88.890625 152.378906 "/>
<path style="fill:none;stroke-width:1.2;stroke-linecap:butt;stroke-linejoin:miter;stroke:rgb(0%,0%,0%);stroke-opacity:1;stroke-miterlimit:10;" d="M 88.890625 152.378906 L 78.753906 144.820312 "/>
<path style=" stroke:none;fill-rule:nonzero;fill:rgb(100%,100%,100%);fill-opacity:1;" d="M 96.027344 154.433594 L 103.027344 154.433594 L 103.027344 165.433594 L 96.027344 165.433594 Z M 96.027344 154.433594 "/>
<g style="fill:rgb(0%,0%,100%);fill-opacity:1;">
  <use xlink:href="#glyph0-1" x="96.027344" y="163.09668"/>
</g>
<path style="fill:none;stroke-width:1.2;stroke-linecap:butt;stroke-linejoin:miter;stroke:rgb(0%,0%,0%);stroke-opacity:1;stroke-miterlimit:10;" d="M 78.753906 144.820312 L 81.699219 119.707031 "/>
<path style="fill:none;stroke-width:1.2;stroke-linecap:butt;stroke-linejoin:miter;stroke:rgb(0%,0%,0%);stroke-opacity:1;stroke-miterlimit:10;" d="M 73.136719 141.617188 L 75.496094 121.523438 "/>
<path style="fill:none;stroke-width:1.2;stroke-linecap:butt;stroke-linejoin:miter;stroke:rgb(0%,0%,0%);stroke-opacity:1;stroke-miterlimit:10;" d="M 55.527344 154.828125 L 78.753906 144.820312 "/>
<path style="fill:none;stroke-width:1.2;stroke-linecap:butt;stroke-linejoin:miter;stroke:rgb(0%,0%,0%);stroke-opacity:1;stroke-miterlimit:10;" d="M 81.699219 119.707031 L 61.421875 104.59375 "/>
<path style="fill:none;stroke-width:1.2;stroke-linecap:butt;stroke-linejoin:miter;stroke:rgb(0%,0%,0%);stroke-opacity:1;stroke-miterlimit:10;" d="M 61.421875 104.59375 L 49.808594 109.597656 "/>
<path style="fill:none;stroke-width:1.2;stroke-linecap:butt;stroke-linejoin:miter;stroke:rgb(0%,0%,100%);stroke-opacity:1;stroke-miterlimit:10;" d="M 49.808594 109.597656 L 38.199219 114.601562 "/>
<path style="fill:none;stroke-width:1.2;stroke-linecap:butt;stroke-linejoin:miter;stroke:rgb(0%,0%,0%);stroke-opacity:1;stroke-miterlimit:10;" d="M 61.453125 111.0625 L 52.164062 115.0625 "/>
<path style="fill:none;stroke-width:1.2;stroke-linecap:butt;stroke-linejoin:miter;stroke:rgb(0%,0%,100%);stroke-opacity:1;stroke-miterlimit:10;" d="M 52.164062 115.0625 L 42.875 119.066406 "/>
<path style="fill:none;stroke-width:1.2;stroke-linecap:butt;stroke-linejoin:miter;stroke:rgb(0%,0%,100%);stroke-opacity:1;stroke-miterlimit:10;" d="M 38.199219 114.601562 L 36.722656 127.160156 "/>
<path style="fill:none;stroke-width:1.2;stroke-linecap:butt;stroke-linejoin:miter;stroke:rgb(0%,0%,0%);stroke-opacity:1;stroke-miterlimit:10;" d="M 36.722656 127.160156 L 35.25 139.714844 "/>
<path style=" stroke:none;fill-rule:nonzero;fill:rgb(100%,100%,100%);fill-opacity:1;" d="M 35.199219 109.101562 L 42.199219 109.101562 L 42.199219 120.101562 L 35.199219 120.101562 Z M 35.199219 109.101562 "/>
<g style="fill:rgb(0%,0%,100%);fill-opacity:1;">
  <use xlink:href="#glyph0-1" x="35.199219" y="117.764648"/>
</g>
<path style="fill:none;stroke-width:1.2;stroke-linecap:butt;stroke-linejoin:miter;stroke:rgb(0%,0%,0%);stroke-opacity:1;stroke-miterlimit:10;" d="M 35.25 139.714844 L 55.527344 154.828125 "/>
<path style="fill:none;stroke-width:1.2;stroke-linecap:butt;stroke-linejoin:miter;stroke:rgb(0%,0%,0%);stroke-opacity:1;stroke-miterlimit:10;" d="M 40.832031 136.457031 L 57.054688 148.546875 "/>
<path style="fill:none;stroke-width:1.2;stroke-linecap:butt;stroke-linejoin:miter;stroke:rgb(0%,0%,0%);stroke-opacity:1;stroke-miterlimit:10;" d="M 150.695312 151.300781 L 163.339844 151.453125 "/>
<path style="fill:none;stroke-width:1.2;stroke-linecap:butt;stroke-linejoin:miter;stroke:rgb(0%,0%,100%);stroke-opacity:1;stroke-miterlimit:10;" d="M 163.339844 151.453125 L 175.984375 151.605469 "/>
<path style="fill:none;stroke-width:1.2;stroke-linecap:butt;stroke-linejoin:miter;stroke:rgb(0%,0%,100%);stroke-opacity:1;stroke-miterlimit:10;" d="M 175.984375 151.605469 L 182.171875 162.632812 "/>
<path style="fill:none;stroke-width:1.2;stroke-linecap:butt;stroke-linejoin:miter;stroke:rgb(0%,0%,0%);stroke-opacity:1;stroke-miterlimit:10;" d="M 182.171875 162.632812 L 188.359375 173.660156 "/>
<path style="fill:none;stroke-width:1.2;stroke-linecap:butt;stroke-linejoin:miter;stroke:rgb(0%,0%,100%);stroke-opacity:1;stroke-miterlimit:10;" d="M 175.984375 151.605469 L 182.4375 140.734375 "/>
<path style="fill:none;stroke-width:1.2;stroke-linecap:butt;stroke-linejoin:miter;stroke:rgb(0%,0%,0%);stroke-opacity:1;stroke-miterlimit:10;" d="M 182.4375 140.734375 L 188.890625 129.863281 "/>
<path style=" stroke:none;fill-rule:nonzero;fill:rgb(100%,100%,100%);fill-opacity:1;" d="M 172.984375 146.105469 L 179.984375 146.105469 L 179.984375 157.105469 L 172.984375 157.105469 Z M 172.984375 146.105469 "/>
<g style="fill:rgb(0%,0%,100%);fill-opacity:1;">
  <use xlink:href="#glyph0-1" x="172.984375" y="154.768555"/>
</g>
<path style="fill:none;stroke-width:1.2;stroke-linecap:butt;stroke-linejoin:miter;stroke:rgb(0%,0%,0%);stroke-opacity:1;stroke-miterlimit:10;" d="M 191.484375 128.40625 L 185.296875 117.378906 "/>
<path style="fill:none;stroke-width:1.2;stroke-linecap:butt;stroke-linejoin:miter;stroke:rgb(100%,0%,0%);stroke-opacity:1;stroke-miterlimit:10;" d="M 185.296875 117.378906 L 179.105469 106.355469 "/>
<path style="fill:none;stroke-width:1.2;stroke-linecap:butt;stroke-linejoin:miter;stroke:rgb(0%,0%,0%);stroke-opacity:1;stroke-miterlimit:10;" d="M 186.296875 131.316406 L 180.109375 120.292969 "/>
<path style="fill:none;stroke-width:1.2;stroke-linecap:butt;stroke-linejoin:miter;stroke:rgb(100%,0%,0%);stroke-opacity:1;stroke-miterlimit:10;" d="M 180.109375 120.292969 L 173.917969 109.265625 "/>
<path style="fill:none;stroke-width:1.2;stroke-linecap:butt;stroke-linejoin:miter;stroke:rgb(0%,0%,0%);stroke-opacity:1;stroke-miterlimit:10;" d="M 188.890625 129.863281 L 214.175781 130.167969 "/>
<path style=" stroke:none;fill-rule:nonzero;fill:rgb(100%,100%,100%);fill-opacity:1;" d="M 168.511719 102.308594 L 176.511719 102.308594 L 176.511719 113.308594 L 168.511719 113.308594 Z M 168.511719 102.308594 "/>
<g style="fill:rgb(100%,0%,0%);fill-opacity:1;">
  <use xlink:href="#glyph0-2" x="168.511719" y="110.97168"/>
</g>
<path style="fill:none;stroke-width:1.2;stroke-linecap:butt;stroke-linejoin:miter;stroke:rgb(0%,0%,0%);stroke-opacity:1;stroke-miterlimit:10;" d="M 214.175781 130.167969 L 226.554688 152.21875 "/>
<path style="fill:none;stroke-width:1.2;stroke-linecap:butt;stroke-linejoin:miter;stroke:rgb(0%,0%,0%);stroke-opacity:1;stroke-miterlimit:10;" d="M 220.605469 129.460938 L 230.507812 147.101562 "/>
<path style="fill:none;stroke-width:1.2;stroke-linecap:butt;stroke-linejoin:miter;stroke:rgb(0%,0%,0%);stroke-opacity:1;stroke-miterlimit:10;" d="M 227.085938 108.421875 L 214.175781 130.167969 "/>
<path style="fill:none;stroke-width:1.2;stroke-linecap:butt;stroke-linejoin:miter;stroke:rgb(0%,0%,0%);stroke-opacity:1;stroke-miterlimit:10;" d="M 226.554688 152.21875 L 251.839844 152.527344 "/>
<path style="fill:none;stroke-width:1.2;stroke-linecap:butt;stroke-linejoin:miter;stroke:rgb(0%,0%,0%);stroke-opacity:1;stroke-miterlimit:10;" d="M 251.839844 152.527344 L 264.75 130.78125 "/>
<path style="fill:none;stroke-width:1.2;stroke-linecap:butt;stroke-linejoin:miter;stroke:rgb(0%,0%,0%);stroke-opacity:1;stroke-miterlimit:10;" d="M 248.015625 147.3125 L 258.34375 129.917969 "/>
<path style="fill:none;stroke-width:1.2;stroke-linecap:butt;stroke-linejoin:miter;stroke:rgb(0%,0%,0%);stroke-opacity:1;stroke-miterlimit:10;" d="M 251.839844 152.527344 L 258.03125 163.550781 "/>
<path style="fill:none;stroke-width:1.2;stroke-linecap:butt;stroke-linejoin:miter;stroke:rgb(20%,80%,80%);stroke-opacity:1;stroke-miterlimit:10;" d="M 258.03125 163.550781 L 264.21875 174.578125 "/>
<path style="fill:none;stroke-width:1.2;stroke-linecap:butt;stroke-linejoin:miter;stroke:rgb(0%,0%,0%);stroke-opacity:1;stroke-miterlimit:10;" d="M 264.75 130.78125 L 252.371094 108.726562 "/>
<path style="fill:none;stroke-width:1.2;stroke-linecap:butt;stroke-linejoin:miter;stroke:rgb(0%,0%,0%);stroke-opacity:1;stroke-miterlimit:10;" d="M 252.371094 108.726562 L 227.085938 108.421875 "/>
<path style="fill:none;stroke-width:1.2;stroke-linecap:butt;stroke-linejoin:miter;stroke:rgb(0%,0%,0%);stroke-opacity:1;stroke-miterlimit:10;" d="M 249.769531 114.648438 L 229.542969 114.402344 "/>
<path style=" stroke:none;fill-rule:nonzero;fill:rgb(100%,100%,100%);fill-opacity:1;" d="M 261.21875 169.078125 L 267.21875 169.078125 L 267.21875 180.078125 L 261.21875 180.078125 Z M 261.21875 169.078125 "/>
<g style="fill:rgb(20%,80%,80%);fill-opacity:1;">
  <use xlink:href="#glyph0-3" x="261.21875" y="177.741211"/>
</g>
</g>
</svg>

<svg xmlns="http://www.w3.org/2000/svg" xmlns:xlink="http://www.w3.org/1999/xlink" width="300pt" height="300pt" viewBox="0 0 300 300"><defs><symbol overflow="visible"><path d="M.453 1.594v-7.938h4.5v7.938zm.5-.5h3.5v-6.938h-3.5zm0 0"/></symbol><symbol overflow="visible" id="a"><path d="M.89-6.563H2.08l2.906 5.485v-5.484h.86V0H4.656L1.75-5.484V0H.89zm0 0"/></symbol><symbol overflow="visible" id="b"><path d="M3.547-5.953c-.65 0-1.164.242-1.547.72-.375.48-.563 1.13-.563 1.952 0 .835.188 1.49.563 1.967.383.48.898.72 1.547.72.644 0 1.156-.24 1.53-.72.376-.476.564-1.132.564-1.968 0-.822-.187-1.474-.562-1.954-.375-.477-.887-.72-1.53-.72zm0-.734c.914 0 1.648.312 2.203.937.55.617.828 1.438.828 2.47 0 1.042-.277 1.87-.828 2.483-.555.617-1.29.922-2.203.922-.93 0-1.668-.305-2.22-.922C.774-1.41.5-2.237.5-3.28c0-1.033.273-1.853.828-2.47.55-.625 1.29-.938 2.22-.938zm0 0"/></symbol><symbol overflow="visible" id="c"><path d="M.89-6.563h3.766v.75h-2.89v1.938h2.61v.734h-2.61V0H.89zm0 0"/></symbol></defs><g><path fill="#fff" d="M0 0h300v300H0z"/><path d="M175.453 195.406l-25.285-.308M188.36 173.66l-12.907 21.746" stroke-width="1.2" stroke="#000" stroke-miterlimit="10" fill="none"/><path d="M137.79 173.047m.99 2.832l.907-.513m.083 3.344l1.82-1.023m-.828 3.856l2.726-1.53m-1.734 4.358l3.637-2.038m-2.644 4.87l4.547-2.55m-3.555 5.383l5.453-3.062m-4.463 5.894l6.367-3.574m-5.375 6.406l7.272-4.087m-6.72 5.668l7.787-4.366" stroke="#000" stroke-miterlimit="10" fill="none"/><path d="M137.79 173.047l-15.114 20.277M137.79 173.047l12.905-21.746M123.172 152.41l14.617 20.637M122.676 193.324l-23.953-8.105M98.723 185.22l.152-12.646" stroke-width="1.2" stroke="#000" stroke-miterlimit="10" fill="none"/><path d="M98.875 172.574l.152-12.64M99.027 159.934l12.075-3.762" stroke-width="1.2" stroke="#00f" stroke-miterlimit="10" fill="none"/><path d="M111.102 156.172l12.07-3.762" stroke-width="1.2" stroke="#000" stroke-miterlimit="10" fill="none"/><path d="M99.027 159.934L88.89 152.38" stroke-width="1.2" stroke="#00f" stroke-miterlimit="10" fill="none"/><path d="M88.89 152.38l-10.136-7.56" stroke-width="1.2" stroke="#000" stroke-miterlimit="10" fill="none"/><path d="M96.027 154.434h7v11h-7zm0 0" fill="#fff"/><use xlink:href="#a" x="96.027" y="163.097" fill="#00f"/><path d="M78.754 144.82l2.945-25.113M73.137 141.617l2.36-20.094M55.527 154.828l23.227-10.008M81.7 119.707L61.42 104.594M61.422 104.594l-11.613 5.004" stroke-width="1.2" stroke="#000" stroke-miterlimit="10" fill="none"/><path d="M49.81 109.598l-11.61 5.004" stroke-width="1.2" stroke="#00f" stroke-miterlimit="10" fill="none"/><path d="M61.453 111.063l-9.29 4" stroke-width="1.2" stroke="#000" stroke-miterlimit="10" fill="none"/><path d="M52.164 115.063l-9.29 4.003M38.2 114.602l-1.477 12.558" stroke-width="1.2" stroke="#00f" stroke-miterlimit="10" fill="none"/><path d="M36.723 127.16l-1.473 12.555" stroke-width="1.2" stroke="#000" stroke-miterlimit="10" fill="none"/><path d="M35.2 109.102h7v11h-7zm0 0" fill="#fff"/><use xlink:href="#a" x="35.199" y="117.765" fill="#00f"/><path d="M35.25 139.715l20.277 15.113M40.832 136.457l16.223 12.09M150.695 151.3l12.645.153" stroke-width="1.2" stroke="#000" stroke-miterlimit="10" fill="none"/><path d="M163.34 151.453l12.644.152M175.984 151.605l6.188 11.028" stroke-width="1.2" stroke="#00f" stroke-miterlimit="10" fill="none"/><path d="M182.172 162.633l6.187 11.027" stroke-width="1.2" stroke="#000" stroke-miterlimit="10" fill="none"/><path d="M175.984 151.605l6.453-10.87" stroke-width="1.2" stroke="#00f" stroke-miterlimit="10" fill="none"/><path d="M182.438 140.734l6.453-10.87" stroke-width="1.2" stroke="#000" stroke-miterlimit="10" fill="none"/><path d="M172.984 146.105h7v11h-7zm0 0" fill="#fff"/><use xlink:href="#a" x="172.984" y="154.769" fill="#00f"/><path d="M191.484 128.406l-6.187-11.027" stroke-width="1.2" stroke="#000" stroke-miterlimit="10" fill="none"/><path d="M185.297 117.38l-6.192-11.025" stroke-width="1.2" stroke="#f00" stroke-miterlimit="10" fill="none"/><path d="M186.297 131.316l-6.188-11.023" stroke-width="1.2" stroke="#000" stroke-miterlimit="10" fill="none"/><path d="M180.11 120.293l-6.192-11.027" stroke-width="1.2" stroke="#f00" stroke-miterlimit="10" fill="none"/><path d="M188.89 129.863l25.286.305" stroke-width="1.2" stroke="#000" stroke-miterlimit="10" fill="none"/><path d="M168.512 102.31h8v11h-8zm0 0" fill="#fff"/><use xlink:href="#b" x="168.512" y="110.972" fill="#f00"/><path d="M214.176 130.168l12.38 22.05M220.605 129.46l9.903 17.642M227.086 108.422l-12.91 21.746M226.555 152.22l25.285.307M251.84 152.527l12.91-21.746M248.016 147.313l10.328-17.395M251.84 152.527l6.19 11.024" stroke-width="1.2" stroke="#000" stroke-miterlimit="10" fill="none"/><path d="M258.03 163.55l6.19 11.028" stroke-width="1.2" stroke="#3cc" stroke-miterlimit="10" fill="none"/><path d="M264.75 130.78l-12.38-22.053M252.37 108.727l-25.284-.305M249.77 114.648l-20.227-.246" stroke-width="1.2" stroke="#000" stroke-miterlimit="10" fill="none"/><path d="M261.22 169.078h6v11h-6zm0 0" fill="#fff"/><use xlink:href="#c" x="261.219" y="177.741" fill="#3cc"/></g></svg>
